!!!!SEGMENT: pl-wumfc--r300--001_paderewski-ignacy-jan--canon-1.krn
!!!cenid: 18xx:3213
!!!COM: Paderewski, Ignacy Jan
!!!COM-rismid: pe30029943
!!!CDT: 1860/11/18-1941/06/29
!!!CNT: Polish
!!!GTL: [Canons]
!!!OTL: [Canon 1]
!!!PDT:
!!!AGN:
!!!SMS-siglum: PL-Wumfc
!!!SMS-shelfmark: R300
!!!SMS-shelfwork: 001 G
!!!SMS-variant:
!!!SMS-altvar:
!!!NIFC-rismid: 1001159509
!!!URL-scan: http://repozytorium.nifc.pl/skany/pl-wumfc--r300
!!!ONB-nifc: UWAGA: skan 0001
**kern	**kern
*part2	*part1
*staff2	*staff1
*I"[fortepian]	*I"[fortepian]
*I'pf	*I'pf
*clefF4	*clefG2
*k[b-]	*k[b-]
*F:	*F:
*M4/4	*M4/4
*met(c)	*met(c)
*^	*^
8r	8C\	8r	8r
=1	=1	=1	=1
4r	8D\L	1r	2r
.	8C\	.	.
8r	8BB-\	.	.
8c/	8AA\J	.	.
8d/L	8BB-\L	.	4r
8c/	16C\L	.	.
.	16D\J	.	.
8B-/	8E\	.	8r
8A/J	8F\J	.	8f\
=2	=2	=2	=2
8G/L	8E\L	2r	8g\L
16A/L	8D\	.	8f\
16Bn/J	.	.	.
8c/	8C\	.	8e\
8d/J	8BB-\J	.	8d\J
8G/L	8AA\L	4r	8c\L
8B/J	8GG\J	.	16d\L
.	.	.	16e\J
4A/	4FF\	4cc/	8f\
.	.	.	8e\J
=3	=3	=3	=3
8F/L	4BB-\	4dd/	8d\L
8G/J	.	.	8e\
4A/	4AA\	4cc/	8f\
.	.	.	8f#X\J
8B-/L	4GG\	4b-/	4g\
16c/L	.	.	.
16d/JJ	.	.	.
4c/	8AA\L	4a/	[4fn\
.	8BB-\J	.	.
=4	=4	=4	=4
[<4c/	2C\	2g/	8f\L]
.	.	.	16e\L
.	.	.	16d\JJ
8c/L]	.	.	4e\
[<8B-/J	.	.	.
8B-/L]	[2FF\	[2a/	2f\
16A/L	.	.	.
16G/J	.	.	.
8A/	.	.	.
8c/J	.	.	.
=5	=5	=5	=5
2F/	8FF\L]	2.a;/]	[4f\
.	16EE\L	.	.
.	16DD\JJ	.	.
.	4D\	.	8f\L]
.	.	.	8d\J
4A/	4FF\	.	4c;>\
4r	8r	4r	4r
.	8A'\	.	.
!!LO:LB:g=original
=6	=6	=6	=6
4r	8F\L	1r	4r
.	8F\	.	.
4r	8G\	.	8r
.	8c\J	.	8e\
4r	8B-\L	.	8c\L
.	16A-X\L	.	8c\
.	16G\J	.	.
8r	8F\	.	8d\
8c/	8E\J	.	8a\J
=7	=7	=7	=7
8A/L	8F\L	2r	8a\L
8A/	8E\	.	8g\J
8Bn/	8D\	.	4f\
8d/J	8GG\J	.	.
8c/L	8C\L	4r	8e\L
8G/J	8BB-X\J	.	8d\J
4E/	4AA\	4a/	8c#X\L
.	.	.	16Bn\L
.	.	.	16c#\JJ
=8	=8	=8	=8
[<8F/L	8D\L	4f/	8d\L
8F/J_<	8C\	.	8e\
16F/LL]	8BB-\	4f/	8d\
16G/J	.	.	.
8A/J	8AA\J	.	8c\J
8B-/L	8GG\L	4g/	4d\
8A/J	8FF\	.	.
4G/	8EE\	4cc/	8c\L
.	8CC\J	.	8e\J
=9	=9	=9	=9
8A/L	2.FF;\	2.a;/	[4f\
8G/	.	.	.
8F/	.	.	8f\L]
8B-/J	.	.	8d\J
4A;/	.	.	4c;\
8r	4r	4r	4r
8A/	.	.	.
=10	=10	=10	=10
8G/L	4r	1r	2r
8G/	.	.	.
8A/	8r	.	.
8F/J	8F\	.	.
8f/L	8D\L	.	4r
16e/L	8D\	.	.
16d/JJ	.	.	.
4c/	8E\	.	8r
.	8C\J	.	8a\
!!LO:LB:g=original
=11	=11	=11	=11
8d/L	8BB-\L	2r	8g\L
16e/L	8E\	.	8g\
16d/JJ	.	.	.
8c#X/L	8AA\	.	8a\
8d/J	8D\J	.	8f\J
4B-/	8GG\L	4r	8g\L
.	8C\J	.	8e\J
8A/L	4FF\	4a/	[4f\
8Bn/J	.	.	.
=12	=12	=12	=12
[<4c/	2C\	4g/	8f\L]
.	.	.	16e\L
.	.	.	16d\JJ
8c/L]	.	4g/	4e\
8B-/J	.	.	.
2A/	8C#X\L	4a/	8e\L
.	16BBn\L	.	16d\L
.	16AA\JJ	.	16c#X\JJ
.	4D\	4f/	8d\L
.	.	.	8cn\J
=13	=13	=13	=13
4G#X/	8E\L	2.e;/	4Bn\
.	8D\	.	.
4A/	8C\	.	4c\
.	8AA\J	.	.
4G#/	4EE;\	.	4B;\
4r	8r	4r	4r
.	8A\	.	.
=14	=14	=14	=14
4r	8A\L	1r	2r
.	8G\	.	.
8r	8A\	.	.
8d/	8d\J	.	.
8f/L	[8c\L	.	2r
8e/	16c\L]	.	.
.	16B-\JJ	.	.
8f/	8A\L	.	.
8b-/J	8G\J	.	.
=15	=15	=15	=15
8a/L	8F\L	1r	4r
16g/L	8G\	.	.
16f/J	.	.	.
8e/	8A\	.	8r
8d/J	8B-\J	.	8g\
4c/	8A\L	.	8g\L
.	8D\	.	8f\
4B-/	8G\	.	8g\
.	8E\J	.	8cc\J
!!LO:LB:g=original
=16	=16	=16	=16
8A/L	8F\L	2r	8cc\L
8B-/J	8G\	.	16b-\L
.	.	.	16a\J
4d/	8BB-\	.	8g\
.	8Cn\J	.	8f\J
8c/L	8C\L	4r	8e\L
8B-/	16D\L	.	8d\
.	16E\J	.	.
8A/	8F\	4a/	8c\
8G/J	8E\J	.	8c#X\J
=17	=17	=17	=17
4F/	8D\L	4a/	[4d\
.	8C\	.	.
4G/	8BB-\	4g/	8d\L]
.	8C\J	.	8e\J
[<4F/	4FF\	4a/	8f\L
.	.	.	8e\
8F/L]	4BB-\	4dd/	8d\
8G/J	.	.	8e\J
=18	=18	=18	=18
4A/	8AA\L	2cc/	[>4f\
.	8BB-\J	.	.
4G/	4C\	.	8f\L]
.	.	.	8e\J
8A/L	2FF\	[2a/	8f\L
8e/	.	.	8g\
8d/	.	.	8f\
16c/L	.	.	16e\L
16B-/JJ	.	.	16d\JJ
=19	=19	=19	=19
2A;/	2F\	2a/]	2c\
4r	2r	2r	4r
4r	.	.	8r
.	.	.	8a\
=20	=20	=20	=20
4r	2r	1r	8a\L
.	.	.	8g\
8r	.	.	8a\
8B-/	.	.	8dd\J
8B-/L	4r	.	4cc\
8A/	.	.	.
8B-/	8r	.	8dd\L
8e/J	8G\	.	8g\J
!!LO:LB:g=original
=21	=21	=21	=21
4.d/	8G\L	2r	8b-\L
.	8F\	.	8a\
.	8G\	.	8b-\
8e/	8c\J	.	8g\J
8f/L	[2F\	4r	8a\L
8e/	.	.	8g\
8d/	.	4a/	8f\
8c/J	.	.	8e\J
!!LO:LB:g=original
=22	=22	=22	=22
2B-/	8F\L]	4a/	4d\
.	8BB-\	.	.
.	8E\	4g/	4e\
.	8D\J	.	.
[4A/	8C#X\L	4a/	4e\
.	8D\J	.	.
8A/L]	4DD\	4dd/	4f\
8Bn/J	.	.	.
=23	=23	=23	=23
8c/L	4AA\	2cc/	8e\L
8Bn/	.	.	8d\
8A/	4CC\	.	8c\
8G/J	.	.	8e\J
4A;/	4FF;\	4a;/	4f\
8r	4r	4r	4r
8c/	.	.	.
=24	=24	=24	=24
8B-/L	4r	1r	2r
8A/	.	.	.
8G/	8r	.	.
8G/J	8F\	.	.
8g/L	8E\L	.	4r
8f/J	8D\	.	.
4e/	8C\	.	8r
.	8C\J	.	8b-\
=25	=25	=25	=25
8e/L	8E\L	2r	8a\L
8e/	8G\J	.	8g\
8f/	4A\	.	8f\
8e/J	.	.	8f\J
8d/L	8B-\L	4r	4g\
8e/	8c\	.	.
8f/	8F\	4cc/	4a\
8e-X/J	8F#X\J	.	.
!!LO:LB:g=original
=26	=26	=26	=26
8d/L	8G\L	4b-/	4g\
8d-X/	8BB-\J	.	.
8c/	4C\	4a/	2f\
8Bn/J	.	.	.
8c/L	4CC\	4g/	.
8d-/	.	.	.
8c/	4C\	4g/	4e\
8B-X/J	.	.	.
=27	=27	=27	=27
8A/L	2.FF;>\	2.f;/	8f\L
8B-/	.	.	8d\
8A/	.	.	8c\
8G/J	.	.	8B-\J
4F/	.	.	4A;>\
4r	4ryy	4r	4r
*v	*v	*	*
*	*v	*v
==	==
*-	*-
!!!system-decoration: {(s1,s2)}
!!!RDF**kern: > = above
!!!RDF**kern: < = below
!!!ENC:Anastazja Marusiak
!!!END:2021-11-13
!!!ENC: Leszek Kubiak
!!!END: 2021-11-17
